X:1
T:Til konsul Axel Heiberg
T:Skogen
T:Peter Lindeman. 
T:Hans Hem
C:Sigurd Lie
Z:Andres Aas
%%score [ 1 2 3 4 ]
L:1/8
Q:1/4=70
M:6/8
K:G
V:1 treble-8 nm="T1"
V:2 treble-8 nm="T2"
V:3 bass nm="Baryton"
V:4 bass nm="Bass"
V:1
"^Ikke for langsomt"!mf! B2 G F2 G | A2 d B2 z | B2!<(! ^c d2!<)! f |!>(! ^c3 B2!>)! z :| %4
w: Bon- de! se den|vak- re skog,|som klær li og|fjel- de,|
w: og som lu- ner|mang- en krog,|hem- mer stor- mens|væl- de.|
 =c2!<(! c B2 G!<)! | e2 e d2 z |!f! (dB) G c2 A |[Q:1/4=80]"^rit." d2!>(! c B2!>)! z | %8
w: Den er din, din|fæd- re- arv.|Nor- * ges pragt og|bed- ste marv,|
w: ||||
[Q:1/4=70]"^a tempo"!p! E2 F!<(! G2 A!<)! | B3 d2 z |!p! G2 A B2 d |!>(! A3 G2!>)! z |] %12
w: stør- ste rig- doms-|kil- de,|in- gen bort bør|spil- de.|
w: ||||
V:2
!mf! G2 G D2 E | F2 A B2 z | B2!<(! B B2!<)! B |!>(! ^A3 F2!>)! z :| F2!<(! F G2 G!<)! | %5
w: Bon- de! se den|vak- re skog,|som klær li og|fjel- de,|Den er din, din|
w: og som lu- ner|mang- en krog,|hem- mer stor- mens|væl- de.||
 G2 A B2 z |!f! B2 B G2 G | F2!>(! A B2!>)! z |!p! E2 F!<(! G2 A!<)! | G3 G2 z |!p! G2 G G2 G | %11
w: fæd- re- arv.|Nor- ges pragt og|bed- ste marv,|stør- ste rig- doms-|kil- de,|in- gen bort bør|
w: ||||||
!>(! F3 G2!>)! z |] %12
w: spil- de.|
w: |
V:3
!mf! D,2 D, D,2 D, | D,2 A, G,2 z | G,2!<(! G, F,2!<)! F, |!>(! F,3 D,2!>)! z :| %4
w: Bon- de! se den|vak- re skog,|som klær li og|fjel- de,|
w: og som lu- ner|mang- en krog,|hem- mer stor- mens|væl- de.|
 D,2!<(! D, D,2 D,!<)! | E,2 G, G,2 z |!f! G,2 G, G,2 E, | A,2!>(! F, F,2!>)! z | %8
w: Den er din, din|fæd- re- arv.|Nor- ges pragt og|bed- ste marv,|
w: ||||
!p! E,2 ^D,!<(! E,2 F,!<)! | D,3 D,2 z |!p! E,2 E, D,2 D, |!>(! D,3 G,2!>)! z |] %12
w: stør- ste rig- doms-|kil- de,|in- gen bort bør|spil- de.|
w: ||||
V:4
!mf! G,,2 B,, D,2 D, | D,2 F, G,2 z | G,2!<(! E, F,2!<)! D, |!>(! F,3 B,,2!>)! z :| %4
w: Bon- de! se den|vak- re skog,|som klær li og|fjel- de,|
w: og som lu- ner|mang- en krog,|hem- mer stor- mens|væl- de.|
 A,,2!<(! A,, G,,2 B,,!<)! | C,2 E, G,2 z |!f! =F,2 F, E,2 E, | E,2!>(! E, ^D,2!>)! z | %8
w: Den er din, din|fæd- re- arv.|Nor- ges pragt og|bed- ste marv,|
w: ||||
!p! E,2 B,,!<(! E,2 =D,!<)! | G,,3 B,,2 z |!p! E,2 C, D,2 B,, |!>(! D,3 G,,2!>)! z |] %12
w: stør- ste rig- doms-|kil- de,|in- gen bort bør|spil- de.|
w: ||||

